X: 40738
T: Toss The Feathers
R: reel
M: 4/4
K: Edorian
"Em"EBB2 dBB2|"Em"EBBA "D"FEFA|"Em"BE E2 B3d|"C"egfe "D"dBAF|
"Em"EBB2 dBB2|"Em"EBBA "D"FEFA|"Em"BE E2 B3d|"C"egfe "D"dBBA||
"Em"Beed e2 de|"D"fede "Bm"fe e2|"Em"febe febe|"D"fede "Bm"fe e2|
"Em"Beed e2 de|"D"fede fa a2|"G"b3f "D"a3f|"C"egfe "Bm"dBAF:|

